X: 181
M: 3/4
L: 1/8
K: G
|:\
|:\
e2 egfg | d2 dgfg | c2 edcB | A2 GFED |\
e2 egfg | d2 dgfg | cA B2 TA2 | G6 :|

